!!!COM: Bach, Johann Sebastian
!!!CDT: 1685/3//-1750/7/28/
!!!OTL@@DE: Jesus Christus, unser Heiland
!!!AGN: 4-Part Chorale
!!!SCT: BH 030
!!!SCT: BWV 363
**harm	**root	**kern	**kern	**kern	**kern
!	!	!bass	!tenor	!alto	!soprno
*	*Iorgan	*Iorgan	*Iorgan	*Iorgan	*Iorgan
*M4/4	*M4/4	*M4/4	*M4/4	*M4/4	*M4/4
*met(c)	*met(c)	*met(c)	*met(c)	*met(c)	*met(c)
*MM60	*MM60	*MM60	*MM60	*MM60	*MM60
*k[b-e-a-d-]	*k[b-e-a-d-]	*k[b-e-a-d-]	*k[b-e-a-d-]	*k[b-e-a-d-]	*k[b-e-a-d-]
*f:	*f:	*f:	*f:	*f:	*f:
=1-	=1-	=1-	=1-	=1-	=1-
i	4EE	4.F	4A-	4c	4f
vb	4BB	.	4G	4c	4cc
.	.	8E-	.	.	.
VI7	4CC	2D-	4A-	8f	4cc
.	.	.	.	8e	.
ivb	4AA	.	8G	4f	4b-
.	.	.	8F	.	.
=2	=2	=2	=2	=2	=2
V	4BB	8C	4G	4e	4cc
.	.	8B-	.	.	.
ib	8EE	8A-	8c	8f	8f
-VIIb	8DD#	8G	8B-	8e	8g
i	4EE	8F	4c	4f	4a-
.	.	8E-	.	.	.
VI	4CC	8D-	8f	4f	4a-
.	.	8C	8e	.	.
=3	=3	=3	=3	=3	=3
viioD7/V	4AA#	4BB	4d	4.f	4a-
V7	4BB	4C	8G	.	4g
.	.	.	16c	8e	.
.	.	.	16B-	.	.
i;	2EE;	2FF;	2A-;	2c;	2f;
=4	=4	=4	=4	=4	=4
i	4EE	8F	4c	4f	4a-
.	.	8E-	.	.	.
VI	4CC	4D-	4d-	4f	4a-
IIIb	4GG	4C	4A-	4e-	4a-
VI	4CC	4D-	4A-	4d-	4f
=5	=5	=5	=5	=5	=5
IIIb	4GG	8D-	8A-	4e-	4a-
.	.	8C	16B-	.	.
.	.	.	16c	.	.
IV	4AA	4BB-	4d-	8f	4b-
.	.	.	.	8g	.
III	4GG	4AA-	8e-	4.a-	4cc
.	.	.	16f	.	.
.	.	.	16e-	.	.
iib	4FF#	4BB-	16d-	.	4b-
.	.	.	16c	.	.
.	.	.	8d-	[8g	.
=6	=6	=6	=6	=6	=6
ic	4EE	2C	4c	8g]	4a-
.	.	.	.	4f	.
V	4BB	.	8.c	.	4g
.	.	.	.	8e	.
.	.	.	16B-	.	.
i;	2EE;	2F;	2A-;	2c;	2f;
!!linebreak: 2
=7	=7	=7	=7	=7	=7
i	4EE	4F	8c	4f	4a-
.	.	.	8d-	.	.
IIIb	4GG	4C	4e-	8a-	4a-
.	.	.	.	8g	.
VI	4CC	8D-	4d-	4f	4a-
.	.	8E-	.	.	.
VIb	4CC	8F	4A-	4d-	4f
.	.	8E-	.	.	.
=8	=8	=8	=8	=8	=8
VI	4CC	8D-	4A-	8f	4a-
.	.	8C	.	8e-	.
IV	4AA	4BB-	4d-	8f	4b-
.	.	.	.	8g	.
III	4GG	4AA-	[4e-	4.a-	4cc
-VII	4DD	4E-	8.e-]	.	4b-
.	.	.	.	8g	.
.	.	.	16d-	.	.
=9	=9	=9	=9	=9	=9
III;	2GG;	2AA-;	2c;	2e-;	2a-;
r	4r	4r	4r	4r	4r
IIIb	4GG	4C	4e-	8a-	4ee-
.	.	.	.	8g-	.
=10	=10	=10	=10	=10	=10
VI	4CC	4D-	8d-	4f	4ff
.	.	.	8c	.	.
-VII	4DD	4E-	4B-	4gy	8ee-
.	.	.	.	.	8dd-
i	8EE	4.F	8A-	8a-	8cc
viioD7	8DD#	.	8d-	8e	8b-
i	8EE	.	8c	8f	8a-
-VIIb	8DD	8G	8B-	[8e-	8b-
=11	=11	=11	=11	=11	=11
III	8GG	8A-	8A-	8e-]	4cc
IIIb	8GG	8C	8e-	4a-	.
V7b/-VII	8AA	8D	8f	.	4b-
V7b	8BB	8E	8c	4g	.
i	4EE	8F	4c	.	4a-
.	.	8AA-	.	4f	.
viiD7/III	8FF#	8BB-	8d-	.	4g
V	8BB	8C	16c	8e	.
.	.	.	16B-	.	.
=12	=12	=12	=12	=12	=12
I;	2.EE;	2.FF;	2.A;	2.c;	2.f;
==	==	==	==	==	==
*-	*-	*-	*-	*-	*-
!!chor2scor: -l 2 -s 0.6 -o %b.pmx
!!!YEC: Copyright 1994, David Huron
!!!YEC: Changes/Additions 2001 by Craig Stuart Sapp
!!!YEN: United States of America
!!!SMA: 371 Bach Chorales, edited by Ludwig Erk, C.F. Peters
!!!PDT: 1850, 1865
!!!ONB: Harmony and Root analysis done manually
